!!!!SEGMENT: pl-kc--40102-iii-1-saf--002-047_zielenski-mikolaj--communiones-totius-anni-motteto-a-5-domine-deus-meus-in-te-speravi.krn
!!!cenid: 16xx:1578
!!!COM: Zieleński, Mikołaj
!!!COM-rismID: pe30013481
!!!CDT: <1611->1611
!!!CNT: Polish
!!!GTL: Communiones totius anni
!!!OTL: Motteto a 5./Domine Deus meus in te speravi
!!!OMV: 047
!!!PDT: 1611
!!!AGN:
!!!YEC: Copyright 2022 Narodowy Instytut Fryderyka Chopina (https://polishscores.org)
!!!YEM: License CC-BY-4.0 (https://creativecommons.org/licenses/by/4.0)
!!!SMS-siglum: PL-Kc
!!!SMS-shelfmark: 40102 III/1 Saf.
!!!SMS-shelfwork: 002-047 G
!!!SMS-variant:
!!!SMS-altvar:
!!!NIFC-rismSourceID: 990069887
!!!NIFC-rismChildID: 990069887
!!!NIFC-islandoraID: none
!!!URL-pdf-islandora:
!!!URL-scan: https://cyfrowe.mnk.pl/dlibra/publication/24235/edition/23926/content?ref=desc @EN{Scan on The National Museum in Krakow Website} @PL{Skany w portalu Biblioteka Cyfrowa Muzeum Narodowego w Krakowie}
!!!IIIF:
!!!ONB-nifc: UWAGA: str. 70-71. Numer w źródle: 55. Uwaga: W xml metrum 2/1 do źródłowego C| i odpowiednio 3/1 do 3/2
!!!AIN: 5 organ
!!!key:
**kern	**kern	**kern	**kern	**kern
*part5	*part4	*part3	*part2	*part1
*staff5	*staff4	*staff3	*staff2	*staff1
*I"	*I"	*I"	*I"	*I"Organo
*I'	*I'	*I'	*I'	*I'org
*Iorgan	*Iorgan	*Iorgan	*Iorgan	*Iorgan
*ICklav	*ICklav	*ICklav	*ICklav	*I'org
*clefF3	*clefC3	*clefC3	*clefC2	*clefG2
*k[]	*k[]	*k[]	*k[]	*k[]
*C:	*C:	*C:	*C:	*C:
*M2/1	*M2/1	*M2/1	*M2/1	*M2/1
*met(C|)	*met(C|)	*met(C|)	*met(C|)	*met(C|)
=1	=1	=1	=1	=1
!	!	!	!	!LO:TX:a:t=55. Motetto à 5.
!	!	!	!	!LO:TX:b:t=Domine Deus meus in te ſperaui
00r	00r	00r	1r	1dd
.	.	.	1g	2dd\
.	.	.	.	2dd\
=2-	=2-	=2-	=2-	=2-
.	.	.	2g\	1ee
.	.	.	2g\	.
.	.	.	1a	2cc\
.	.	.	.	[y2ff\
=3	=3	=3	=3	=3
!	!	!	!	!LO:N:xstem:cue
00r	00r	0r	2f\	4ff\]
.	.	.	.	4ee\
.	.	.	1b-X	4dd\
.	.	.	.	4cc\
.	.	.	.	4dd\
.	.	.	.	4g/
.	.	.	2.a\	2.cc\
=4-	=4-	=4-	=4-	=4-
.	.	1d	.	.
.	.	.	4g\	4b/
.	.	.	1g	4b/
.	.	.	.	8a/
.	.	.	.	8g/
.	.	2d\	.	1a
.	.	2d\	2f#X\	.
=5	=5	=5	=5	=5
00r	00r	1e	1g	2g/
!	!	!	!	!LO:N:vis=1
.	.	.	.	2cc\
.	.	2c/	1.a	2gg\
.	.	2.f\	.	2ff\
=6-	=6-	=6-	=6-	=6-
.	.	.	.	2ee\
.	.	4e\	.	.
.	.	4d\	2a\	2.ff\
.	.	4c\	.	.
.	.	4d\	2b\	.
.	.	4G/	.	4ee\
.	.	[<2g\	[y2cc\	4ee\
.	.	.	.	8dd\
.	.	.	.	8cc\
=7	=7	=7	=7	=7
!	!	!LO:TX:t=P:problem=brak zakończenia łuku	!LO:N:xstem:cue	!
00r	2G/	2g\]	4cc\]	4dd\
.	.	.	8b\	4g/
.	.	.	8a\	.
.	2G/	1d	2b\	2gg\
.	1A	.	1.a	2ff\
.	.	1c\	.	2ee\
=8-	=8-	=8-	=8-	=8-
.	2F/	.	.	2.ff\
.	1B-X	1d	2.f\	.
.	.	.	.	4ee\
.	.	.	.	2dd\
.	.	.	4g\	.
.	[y2A/	2e\	2a\	2cc#X\
=9	=9	=9	=9	=9
!	!LO:N:xstem:cue	!	!	!
1D	4A/]	2f\	2a\	1dd
.	4G/	.	.	.
.	1G	2.d\	2b-X\	.
2D/	.	.	1a	1dd
.	.	8c/	.	.
.	.	8B/	.	.
2D/	2F#X/	4A/	.	.
.	.	4B/	.	.
=10-	=10-	=10-	=10-	=10-
1E	1.G	2c/	2.g\	0r
.	.	2B/	.	.
.	.	.	4f\	.
2C/	.	1c	4e/	.
.	.	.	4d/	.
[y2F/	2A/	.	4c/	.
.	.	.	(4B/	.
=11	=11	=11	=11	=11
!LO:N:xstem:cue	!	!	!	!
4F/]	2A/	2d\	1A)	1dd
4E/	.	.	.	.
4D/	2.F/	2f\	.	.
4C/	.	.	.	.
1D	.	1f	1a	2dd\
.	4G/	.	.	.
.	4A/	.	.	2dd\
.	4B/	.	.	.
=12-	=12-	=12-	=12-	=12-
1.A	2.c/	1e	1a	1ee
.	4d\	.	.	.
.	2e\	1a	1r	2cc\
2F/	[y2d\	.	.	[<2ff\
=13	=13	=13	=13	=13
!	!LO:N:xstem:cue	!	!	!
1.c	4d\]	1g	2r	2ff\]
.	4c/	.	.	.
.	4d\	.	2g\	2.ee\
.	4e\	.	.	.
.	4f\	1r	2g\	.
.	4g\	.	.	4dd\
2B-X\	4d\	.	2g\	1dd\
.	2f\	.	.	.
=14-	=14-	=14-	=14-	=14-
1A	.	0r	1a	.
.	2e\	.	.	.
.	.	.	.	2cc#X\
.	2.d\	.	.	.
2B-X\	.	.	2f\	[<1dd
[2G\	4c/	.	[<2b-X\	.
.	4ryy	.	.	.
=15	=15	=15	=15	=15
2G\]	4B-X/	0r	2b-\]	1dd]
.	4G/	.	.	.
2F/	2d\	.	2.a\	.
1G	1B-X	.	.	0dd
.	.	.	4g\	.
.	.	.	2.g\	.
=16-	=16-	=16-	=16-	=16-
*lig	*	*	*	*
1D	1A	2r	.	.
.	.	.	8f#X\	.
.	.	.	8e\	.
.	.	2d\	2f#\	.
1G	1B-	2d\	1g	2r
.	.	2d\	.	2dd\
*Xlig	*	*	*	*
=17	=17	=17	=17	=17
0C	2r	2.e\	1.g	2.cc\
.	2c/	.	.	.
.	.	4d\	.	4dd\
.	2c/	2c/	.	1ee
.	2c/	2g\	2.cc\	.
=18-	=18-	=18-	=18-	=18-
0r	1d	2.f\	.	1ff
.	.	.	8b\	.
.	.	.	8a\	.
.	.	.	4b\	.
.	.	4g\	8a\	.
.	.	.	8b\	.
.	2c/	1a	2cc\	2ee\
.	[y2f\	.	2a\	[<2dd\
*custos:G	*custos:e	*custos:g	*custos:b	*custos:dd
!!linebreak:original
=19	=19	=19	=19	=19
!	!LO:N:xstem:cue	!	!	!
1G	4f\]	1g	2b\	2dd\]
.	4e\	.	.	.
.	4e\	.	2.g\	2.cc\
.	8d\	.	.	.
.	8c\	.	.	.
2G\	1d	2r	.	.
.	.	.	4f\	8b/
.	.	.	.	8a/
2G\	.	2g\	2d/	2b/
=20-	=20-	=20-	=20-	=20-
1A	1c	1e	1.a	1cc
2F/	2c/	2f\	.	2r
[2C/	[2c/	[<2e\	2g\	2ee\
=21	=21	=21	=21	=21
4C/]	2c/]	4e\]	2g\	2ee\
4D/	.	4d\	.	.
2E/	2G/	2.c/	2g\	2ee\
1D	1d	.	2a\	1gg
.	.	8B/	.	.
.	.	8A/	.	.
.	.	2B/	2d/	.
=22-	=22-	=22-	=22-	=22-
1C	1G	2c/	1g	2ee\
.	.	1e	.	2.gg\
1r	[1A	.	2cc\	.
.	.	.	.	4ff\
.	.	[<2d\	[y2a\	4ff\
.	.	.	.	8ee\
.	.	.	.	8dd\
=23	=23	=23	=23	=23
!	!	!	!LO:N:xstem:cue	!
2r	0A]	2d\]	4a\]	1ee
.	.	.	4g\	.
2AA/	.	2c#X/	2e/	.
2D/	.	0d	2f\	0dd
2D/	.	.	2f\	.
=24-	=24-	=24-	=24-	=24-
*lig	*	*	*	*
1BB	2r	.	2.g\	.
.	2G/	.	.	.
.	.	.	4f\	.
1C	2G/	1e	4e/	2r
.	.	.	4c/	.
.	2c/	.	[y2g\	2g/
*Xlig	*	*	*	*
=25	=25	=25	=25	=25
!	!	!	!LO:N:xstem:cue	!
1D	1A	2r	4g\]	2dd\
.	.	.	8f#X\	.
.	.	.	8e\	.
.	.	2A/	2f#\	2dd\
1r	0G	2d\	1g	2.b/
.	.	2d\	.	.
.	.	.	.	4cc\
=26-	=26-	=26-	=26-	=26-
*	*	*lig	*	*
0r	.	1B	2r	2.dd\
.	.	.	2d/	.
.	.	.	.	8cc\
.	.	.	.	8dd\
.	1r	1c	2g\	4ee\
.	.	.	.	4cc\
.	.	.	2g\	[y2ee\
*	*	*Xlig	*	*
=27	=27	=27	=27	=27
!	!	!	!	!LO:N:xstem:cue
1r	0r	2d\	2f\	4ee\]
.	.	.	.	4dd\
.	.	2B-X/	2d/	2.dd\
2r	.	2G/	1e	.
.	.	.	.	8cc#X\
.	.	.	.	8b\
2AA/	.	1A/	.	2cc#\
=28-	=28-	=28-	=28-	=28-
2D/	2r	.	2.f\	1dd
2D/	2A/	4G/	.	.
.	.	4F/	4f\	.
2C/	2e\	2c/	2g\	1r
2AA/	2e\	2c/	[y2a\	.
=29	=29	=29	=29	=29
!	!	!	!LO:N:xstem:cue	!
2.BB/	2d\	2B/	4a\]	0r
.	.	.	4g\	.
.	2B/	1d	1g	.
4C/	.	.	.	.
2D/	1A	.	.	.
2D/	.	2d\	2f#X\	.
=30-	=30-	=30-	=30-	=30-
1G	2.B/	2d\	1.g	2r
.	.	2.d\	.	2dd\
.	4A/	.	.	.
1E	2G/	.	.	2gg\
.	.	8c/	.	.
.	.	8B/	.	.
.	2G/	2c/	2e/	2gg\
=31	=31	=31	=31	=31
2D/	0.B	2d\	1a	2ee\
1D	.	2f\	.	2dd\
.	.	2d\	1a	2ff\
2C#X/	.	2e\	.	2ee\
=32-	=32-	=32-	=32-	=32-
1D	.	1f	2r	1dd
.	.	.	2d/	.
1AA	2r	[<1e	2a\	2.cc\
.	[2c/	.	2a\	.
.	.	.	.	4dd\
=33	=33	=33	=33	=33
2r	2c/]	1e]	0g	2ee\
2C/	2c\	.	.	2ee\
2G\	1B	2r	.	2dd\
2G\	.	2d\	.	4cc\
.	.	.	.	4b\
=34-	=34-	=34-	=34-	=34-
1F	2.A/	2a\	2r	2cc\
.	.	2a\	2d/	2dd\
.	4B/	.	.	.
2r	1c	4g\	2g\	1ee
.	.	4f\	.	.
2C/	.	4e\	2g\	.
.	.	4d\	.	.
=35	=35	=35	=35	=35
2F/	2c/	2c/	2f\	1a
2F/	2d\	4B/	2d/	.
.	.	4A/	.	.
2.E/	1G	4B/	1e	2r
.	.	4G/	.	.
.	.	1c\	.	2g/
4F/	.	.	.	.
=36-	=36-	=36-	=36-	=36-
2G\	1r	.	2.d/	2dd\
2G\	.	2B/	.	2dd\
.	.	.	4e/	.
4A\	2r	1c	4f\	1cc
4G\	.	.	4e/	.
4F/	2A/	.	[<2a\	.
4E/	.	.	.	.
=37	=37	=37	=37	=37
2D/	2d\	2.f\	2a\]	2r
2G/	2d\	.	2a\	2dd\
.	.	4f\	.	.
2E/	1G	2g\	2b\	2gg\
2C/	.	4f\	2.cc\	2gg\
.	.	4e\	.	.
=38-	=38-	=38-	=38-	=38-
2F/	2r	2d\	.	2ff\
.	.	.	8b\	.
.	.	.	8a\	.
2G\	2g\	2d\	4b\	2dd\
.	.	.	8a\	.
.	.	.	8b\	.
2C/	2g\	2c/	1cc	2.ee\
2C/	2c/	[y2g\	.	.
.	.	.	.	4ee\
=39	=39	=39	=39	=39
!	!	!LO:N:xstem:cue	!	!
2.G\	2d\	4g\]	2b\	2dd\
.	.	4g\	.	.
.	2B/	2g\	1g	1ee
4G\	.	.	.	.
1A	2e\	1c	.	.
.	2A/	.	2f#X\	4dd\
.	.	.	.	4cc\
=40-	=40-	=40-	=40-	=40-
2.G\	2d\	0r	2g\	4b/
.	.	.	.	4cc\
.	2B/	.	2d/	2dd\
4G\	.	.	.	.
2E/	2B/	.	2.e/	2g/
2C/	[2c/	.	.	[2a/
.	.	.	4e/	.
=41	=41	=41	=41	=41
0D	2c/]	0r	2f\	4a/]
.	.	.	.	4a/
.	2B/	.	2d/	2.g/
.	1A	.	1d	.
.	.	.	.	8f#X/
.	.	.	.	8e/
.	.	.	.	2f#/
=42-	=42-	=42-	=42-	=42-
0G	0B	1r	1d	1g
.	.	2r	2r	1dd
.	.	2g\	2b\	.
=43	=43	=43	=43	=43
0r	0r	2e\	2cc\	2ee\
.	.	2f\	2a\	2cc\
.	.	1d	2a\	1ff
.	.	.	4g\	.
.	.	.	4f\	.
=44-	=44-	=44-	=44-	=44-
1r	1r	1c	4g\	1ee
.	.	.	4a\	.
.	.	.	2g\	.
1E	1B	2r	2g\	1dd
.	.	2d\	2g\	.
*custos:E	*custos:c	*custos:e	*custos:g	*custos:gg
!!linebreak:original
=45	=45	=45	=45	=45
2E/	2c/	2e\	2g\	0r
2F/	2A/	2c/	2a\	.
*	*	*lig	*	*
1D	2A/	1f	2.a\	.
.	4G/	.	.	.
.	4F/	.	4b\	.
=46-	=46-	=46-	=46-	=46-
1C	2G/	1e	4cc\	1r
*	*	*Xlig	*	*
.	.	.	4g\	.
.	2.g\	.	2.cc\	.
1G	.	1d	.	2r
.	4d\	.	8b\	.
.	.	.	8a\	.
.	2g\	.	2b\	2gg\
=47	=47	=47	=47	=47
2A\	1c	0r	2cc\	2ee\
2F/	.	.	1a	2ff\
1B-X	2r	.	.	2.dd\
.	1d\	.	2g\	.
.	.	.	.	4ee\
=48-	=48-	=48-	=48-	=48-
1A	.	2r	1.a	4ff\
.	.	.	.	8ee\
.	.	.	.	8dd\
.	2c#X/	2e\	.	2ee\
2F#X/	2d\	2a\	.	1dd
[2G\	2B/	2g\	2d/	.
=49	=49	=49	=49	=49
2G\]	2.A/	2a\	2e/	2r
2F#X/	.	2a\	1d	1dd
.	8G/	.	.	.
.	8A/	.	.	.
2G\	2B/	1g	.	.
2E/	4A/	.	1g\	2cc#X\
.	4G/	.	.	.
=50-	=50-	=50-	=50-	=50-
*lig	*	*	*	*
1D	1A	2r	.	2dd\
.	.	1d	2f#X\	2a/
1E	1G	.	2g\	1ee
.	.	2c#X/	4f#\	.
.	.	.	4e/	.
*Xlig	*	*	*	*
=51	=51	=51	=51	=51
1D	1r	2d\	2.f#y\	2a/
!	!	!	!	!LO:SIC:v:o=1ff
.	.	2A/	.	1ff#
.	.	.	4f#y\	.
1r	2r	1c	2a\	.
.	1c\	.	2g\	2ee\
=52-	=52-	=52-	=52-	=52-
!	!	!	!	!LO:SIC:v:o=2ff\
2r	.	1d	2r	2ff#\
1G	2B/	.	2g\	2dd\
.	2c/	2r	2g\	2ee\
2F#X/	2A/	[<2d\	2a\	2dd\
=53	=53	=53	=53	=53
2G\	2B/	2d\]	2d/	2r
2E/	4A/	2c#X/	2e/	1gg
.	4G/	.	.	.
1D	2A/	2d\	2a\	.
.	2A/	2d\	2a\	2ff#X\
=54-	=54-	=54-	=54-	=54-
1G	2G/	1d	2cc\	2gg\
!	!	!	!	!LO:TX:t=P:problem=wykreślona kreska taktowa
.	2B/	.	1g	2dd\
2r	2c/	1cny	.	1dd
[>2C/	2G/	.	2g\	.
=55	=55	=55	=55	=55
2C/]	1G	2r	[<0g	2r
2BB/	.	2d\	.	1gg
1C	2G/	1e	.	.
.	1c\	.	.	2dd\
=56-	=56-	=56-	=56-	=56-
2.G\	.	1d	0g]	2ee\
.	2B/	.	.	2dd\
4F/	.	.	.	.
2E/	2B/	1g	.	1ee
2G\	2B/	.	.	.
=57	=57	=57	=57	=57
0C	4c/	0e	0g	0cc
.	4d\	.	.	.
.	4e\	.	.	.
.	4f\	.	.	.
.	2g\	.	.	.
.	2G/	.	.	.
=58-	=58-	=58-	=58-	=58-
0Gl	0Gl	0dl	0gl	0bl
==	==	==	==	==
*-	*-	*-	*-	*-
!!!system-decoration: [(s1,s2,s3,s4,s5)]
!!!RDF**kern: l = terminal long
!!!RDF**kern: i = editorial accidental
!!!RDF**kern: > = above
!!!RDF**kern: < = below
!!!ENC: Katarzyna Serwa
!!!END: 2021-12-27
!!!ENC: Andrzej Gręziak
!!!END: 2021-12-21
